public/svg/invision.svg

<svg width="24" height="24" viewBox="0 0 24 24" fill="none" xmlns="http://www.w3.org/2000/svg">
<g clip-path="url(#clip0)">
<path d="M24.0001 7.96808V21.9241C24.0001 22.4736 23.7822 23.0008 23.3942 23.3899C23.0062 23.7791 22.4797 23.9985 21.9301 24.0001H2.07014C1.53194 24.0019 1.01432 23.7934 0.627633 23.419C0.240948 23.0447 0.0157839 22.5341 0.000141307 21.9961V2.07608C-0.00306265 1.80307 0.0482471 1.53217 0.151065 1.27925C0.253882 1.02632 0.40614 0.796456 0.598919 0.603118C0.791697 0.409781 1.02112 0.256858 1.27375 0.153309C1.52637 0.04976 1.79713 -0.00233356 2.07014 8.02e-05H21.8221C22.3878 0.00881441 22.9287 0.233767 23.3337 0.628756C23.7388 1.02374 23.9772 1.5588 24.0001 2.12408V7.96808Z" fill="#ED4969"/>
<path d="M16.7398 8.44786C18.0718 8.44786 19.1218 9.35986 19.1218 11.2259C19.1218 11.6819 19.0498 12.2099 18.9118 12.7739L18.2458 15.1679C18.1738 15.4499 18.1078 15.6239 18.1078 15.8339C18.1078 16.2239 18.3178 16.5059 18.5638 16.5059C18.8758 16.5059 19.2958 16.2239 19.7518 14.9579L20.6638 15.2699C20.1418 17.2079 19.1218 18.0179 17.8918 18.0179C16.4218 18.0179 15.7558 17.1359 15.7558 15.9419C15.7558 15.6239 15.8218 15.2699 15.8938 14.8859L16.5598 12.4259C16.6318 12.1379 16.7038 11.8919 16.7038 11.6819C16.7038 10.8719 16.2478 10.4219 15.4438 10.4219C14.4538 10.4219 13.7878 11.1539 13.4398 12.4919L12.1078 17.8739H9.8278L10.2118 16.1519C9.5458 17.2799 8.5618 18.0119 7.3678 18.0119C5.9638 18.0119 5.2978 17.2079 5.2978 15.9419C5.2978 15.6239 5.3698 15.2039 5.4358 14.8859L6.4918 10.4879H4.8418L5.2978 8.62186H9.2998L7.7218 14.8799C7.5778 15.2639 7.5778 15.6179 7.5778 15.8639C7.5778 16.2539 7.7878 16.3919 8.1058 16.4639H8.2438C8.6338 16.4639 9.8938 16.2539 10.6318 14.6639L11.6818 10.4819H9.9658L10.4938 8.61586H14.0698L13.6138 10.7639C14.2138 9.56386 15.4738 8.44186 16.7338 8.44186L16.7398 8.44786ZM8.3458 7.31986C7.5358 7.31986 6.9418 6.71986 6.9418 5.90986C6.94338 5.53798 7.0918 5.18179 7.35476 4.91883C7.61772 4.65587 7.97392 4.50744 8.3458 4.50586C9.1498 4.50586 9.7498 5.10586 9.7498 5.90986C9.8158 6.71986 9.1498 7.31986 8.3458 7.31986Z" fill="white"/>
</g>
<defs>
<clipPath id="clip0">
<rect width="24" height="24" fill="white"/>
</clipPath>
</defs>
</svg>

<svg xmlns="http://www.w3.org/2000/svg" width="24" height="24" fill="none" xmlns:v="https://vecta.io/nano"><g clip-path="url(#A)"><path d="M24 7.968v13.956c0 .55-.218 1.077-.606 1.466s-.915.609-1.464.61H2.07c-.538.002-1.056-.207-1.443-.581S.016 22.534 0 21.996V2.076A2.05 2.05 0 0 1 .599.603 2.05 2.05 0 0 1 2.07 0h19.752c.566.009 1.107.234 1.512.629s.643.93.666 1.495v5.844z" fill="#ed4969"/><path d="M16.74 8.448c1.332 0 2.382.912 2.382 2.778 0 .456-.072.984-.21 1.548l-.666 2.394c-.072.282-.138.456-.138.666 0 .39.21.672.456.672.312 0 .732-.282 1.188-1.548l.912.312c-.522 1.938-1.542 2.748-2.772 2.748-1.47 0-2.136-.882-2.136-2.076 0-.318.066-.672.138-1.056l.666-2.46c.072-.288.144-.534.144-.744 0-.81-.456-1.26-1.26-1.26-.99 0-1.656.732-2.004 2.07l-1.332 5.382h-2.28l.384-1.722c-.666 1.128-1.65 1.86-2.844 1.86-1.404 0-2.07-.804-2.07-2.07 0-.318.072-.738.138-1.056l1.056-4.398h-1.65l.456-1.866H9.3L7.722 14.88c-.144.384-.144.738-.144.984 0 .39.21.528.528.6h.138c.39 0 1.65-.21 2.388-1.8l1.05-4.182H9.966l.528-1.866h3.576l-.456 2.148c.6-1.2 1.86-2.322 3.12-2.322l.006.006zM8.346 7.32c-.81 0-1.404-.6-1.404-1.41a1.41 1.41 0 0 1 1.404-1.404c.804 0 1.404.6 1.404 1.404.066.81-.6 1.41-1.404 1.41z" fill="#fff"/></g><defs><clipPath id="A"><path fill="#fff" d="M0 0h24v24H0z"/></clipPath></defs></svg>
